imgs/logo-alura.svg

<svg width="60" height="56" viewBox="0 0 60 56" fill="none" xmlns="http://www.w3.org/2000/svg">
<g filter="url(#filter0_d_32401_202)">
<path fill-rule="evenodd" clip-rule="evenodd" d="M37.3958 23.6529C37.3524 23.9311 37.2466 24.1959 37.0863 24.4275C36.926 24.659 36.7154 24.8512 36.4703 24.9898C35.9766 25.3086 35.5447 25.468 35.1077 25.6274C34.177 25.9488 33.1974 26.2702 32.1613 26.643C31.0687 27.0157 30.0891 27.3885 29.215 27.6585C28.1249 28.0313 27.0888 28.3526 26.1041 28.7254C25.3633 29.0425 24.6674 29.4556 24.0345 29.9544C23.4458 30.4877 22.9321 31.0983 22.5073 31.7695C22.0703 32.515 21.7952 33.4766 21.7952 34.5975C21.7952 36.842 22.3402 38.5491 23.4329 39.6161C24.523 40.7396 26.5438 41.2718 29.5389 41.2718C32.5933 41.2718 34.6655 40.6856 35.7607 39.5107C36.8482 38.3357 37.3932 36.6826 37.3932 34.5487V23.6529H37.3958ZM29.5415 0C34.8891 0 38.815 1.01553 41.3217 3.09802C43.831 5.12908 45.0856 7.74119 45.0856 10.8366V37.2148C45.0856 38.2817 44.8696 39.4567 44.4891 40.737C44.1035 42.0225 43.3425 43.1949 42.1418 44.2592C40.9977 45.3313 39.4166 46.2389 37.3984 46.933C35.3802 47.6272 32.7629 48 29.5441 48C26.3304 48 23.708 47.6272 21.6923 46.933C19.6767 46.2389 18.093 45.3313 16.9489 44.2592C15.8846 43.3001 15.0783 42.089 14.6042 40.737C14.2185 39.4592 14 38.2843 14 37.2174V33.001C14 30.7565 14.599 28.674 15.7997 26.8563C17.0003 24.9898 18.6894 23.7095 20.8722 22.9073C21.9623 22.5345 23.2169 22.1618 24.6335 21.681C26.0527 21.1976 27.3588 20.7169 28.6699 20.2927C29.9811 19.8633 31.1252 19.434 32.1048 19.0586C32.6959 18.8221 33.2963 18.6094 33.9044 18.421L34.8866 17.9402C35.2722 17.7268 35.6501 17.4055 36.0332 16.9787C36.4137 16.5545 36.7402 16.0737 37.0153 15.5389C37.306 14.9599 37.4557 14.3203 37.4524 13.6724V11.9627C37.4564 11.3361 37.3249 10.716 37.0667 10.145C36.8508 9.5023 36.4137 8.91612 35.8147 8.38393C35.2156 7.84917 34.3955 7.42239 33.416 7.09845C32.4338 6.78222 31.1278 6.62025 29.6521 6.62025C26.5977 6.62025 24.5795 7.21157 23.4894 8.43535C22.5639 9.50488 22.0189 10.8392 21.9109 12.3329C21.9109 12.6543 21.6383 12.8677 21.3093 12.8677L14.6582 12.9757C14.5002 12.9764 14.3483 12.9146 14.2356 12.8039C14.123 12.6931 14.0586 12.5423 14.0566 12.3844V10.8418C14.0566 9.3429 14.3317 7.95458 14.9307 6.62025C15.5323 5.28334 16.4604 4.16497 17.7125 3.20086C18.9671 2.24189 20.6048 1.44231 22.5665 0.907552C24.4767 0.26481 26.8214 0 29.5467 0H29.5415Z" fill="white"/>
</g>
<defs>
<filter id="filter0_d_32401_202" x="-4" y="0" width="68" height="56" filterUnits="userSpaceOnUse" color-interpolation-filters="sRGB">
<feFlood flood-opacity="0" result="BackgroundImageFix"/>
<feColorMatrix in="SourceAlpha" type="matrix" values="0 0 0 0 0 0 0 0 0 0 0 0 0 0 0 0 0 0 127 0" result="hardAlpha"/>
<feOffset dy="4"/>
<feGaussianBlur stdDeviation="2"/>
<feComposite in2="hardAlpha" operator="out"/>
<feColorMatrix type="matrix" values="0 0 0 0 0 0 0 0 0 0 0 0 0 0 0 0 0 0 0.25 0"/>
<feBlend mode="normal" in2="BackgroundImageFix" result="effect1_dropShadow_32401_202"/>
<feBlend mode="normal" in="SourceGraphic" in2="effect1_dropShadow_32401_202" result="shape"/>
</filter>
</defs>
</svg>

<svg width="60" height="56" fill="none" xmlns="http://www.w3.org/2000/svg">
  <g filter="url(#a)">
    <path fill-rule="evenodd" clip-rule="evenodd" d="M37.396 23.653a1.867 1.867 0 0 1-.926 1.337c-.493.319-.925.478-1.362.637-.931.322-1.91.643-2.947 1.016-1.092.373-2.072.745-2.946 1.015-1.09.373-2.126.695-3.11 1.067-.742.317-1.438.73-2.07 1.23a8.797 8.797 0 0 0-1.528 1.815c-.437.745-.712 1.707-.712 2.827 0 2.245.545 3.952 1.638 5.02 1.09 1.123 3.11 1.655 6.106 1.655 3.054 0 5.127-.586 6.222-1.761 1.087-1.175 1.632-2.828 1.632-4.962V23.653h.003ZM29.54 0c5.348 0 9.274 1.016 11.78 3.098 2.51 2.031 3.765 4.643 3.765 7.739v26.378c0 1.067-.216 2.242-.597 3.522-.386 1.285-1.146 2.458-2.347 3.522-1.144 1.072-2.725 1.98-4.744 2.674C35.38 47.627 32.763 48 29.544 48c-3.214 0-5.836-.373-7.852-1.067-2.015-.694-3.599-1.602-4.743-2.674a8.55 8.55 0 0 1-2.345-3.522c-.385-1.278-.604-2.453-.604-3.52v-4.216c0-2.244.599-4.327 1.8-6.145 1.2-1.866 2.89-3.147 5.072-3.949 1.09-.372 2.345-.745 3.762-1.226 1.419-.483 2.725-.964 4.036-1.388a72.115 72.115 0 0 0 3.435-1.234c.59-.237 1.191-.45 1.8-.638l.982-.48c.385-.214.763-.535 1.146-.962.38-.424.707-.905.982-1.44.291-.58.44-1.219.437-1.867v-1.71a4.344 4.344 0 0 0-.385-1.817c-.216-.643-.653-1.229-1.252-1.761-.6-.535-1.42-.962-2.399-1.286-.982-.316-2.288-.478-3.764-.478-3.054 0-5.073.592-6.163 1.815-.925 1.07-1.47 2.404-1.578 3.898 0 .321-.273.535-.602.535l-6.65.108a.6.6 0 0 1-.602-.592v-1.542c0-1.5.275-2.887.874-4.222.601-1.337 1.53-2.455 2.781-3.42 1.255-.958 2.893-1.758 4.855-2.292C24.477.265 26.82 0 29.547 0h-.006Z" fill="#fff"/>
  </g>
  <defs>
    <filter id="a" x="-4" y="0" width="68" height="56" filterUnits="userSpaceOnUse" color-interpolation-filters="sRGB">
      <feFlood flood-opacity="0" result="BackgroundImageFix"/>
      <feColorMatrix in="SourceAlpha" values="0 0 0 0 0 0 0 0 0 0 0 0 0 0 0 0 0 0 127 0" result="hardAlpha"/>
      <feOffset dy="4"/>
      <feGaussianBlur stdDeviation="2"/>
      <feComposite in2="hardAlpha" operator="out"/>
      <feColorMatrix values="0 0 0 0 0 0 0 0 0 0 0 0 0 0 0 0 0 0 0.25 0"/>
      <feBlend in2="BackgroundImageFix" result="effect1_dropShadow_32401_202"/>
      <feBlend in="SourceGraphic" in2="effect1_dropShadow_32401_202" result="shape"/>
    </filter>
  </defs>
</svg>
